X:1
T:Charity
T:Charity
T:Courtesy of the Cyber Hymnal (http://www.cyberhymnal.org)
T:Courtesy of the Cyber Hymnal (http://www.cyberhymnal.org)
Z:Courtesy of the Cyber Hymnal (http://www.cyberhymnal.org)
%%score { ( 1 2 ) ( 3 4 ) 5 ( 6 7 ) }
L:1/8
Q:1/4=110
M:4/4
K:Ab
V:1 treble nm="P1"
V:2 treble 
V:3 treble nm="P2"
V:4 treble 
V:5 treble nm="P3"
V:6 bass nm="P4"
V:7 bass 
V:1
"^Editor: John Henry Fowler""^( Revision: 11-24-2007 )" A2 d2 c2 =E2 | A2 B2"^( 1875 )" E4 | %2
 F2 G2 A2 F2 | B2"^John Stainer""^( 1840 - 1901 )" A2 (A2 G2) | A2 e2 d2 c2 | B2 A2 (A2 G2) | %6
 A2 E2 F2 D2 | A8 |] %8
V:2
 E2 E2 E2 =E2 | F2 F2 E4 | C2 E2 E2 E2 | =D2 F2 E4 | E2 C2 D2 E2 | F2 F2 E4 | A2 E2 F2 D2 | A8 |] %8
V:3
 z8 | z8 | z8 | z8 | z8 |"^Organ" z8 | [EA]4 [DA]4 | (F4 E4) |] %8
V:4
 x8 | x8 | x8 | x8 | x8 | x8 | x8 | (D4 C4) |] %8
V:5
 z8 | z8 | z8 | z8 | z8 |"^Organ" z8 | [C,A,]4 [D,F,]4 | A,,8 |] %8
V:6
 C2 B,2 A,2 B,2 | C2 B,A, A,2 G,2 | A,2 B,2 A,2 C2 | F,2 B,2 B,4 | A,2 A,2 A,2 A,2 | %5
 D2 C2 (C2 B,2) | A,2 E,2 F,2 D,2 | A,8 |] %8
V:7
 A,2 G,2 .A,2 G,2 | F,2 (D,2 E,4) | E,2 D,2 C,2 A,,2 | B,,2 =D,2 (E,2 _D,2) | C,2 _G,2 F,2 E,2 | %5
 D,2 =D,2 E,4 | A,2 E,2 F,2 D,2 | A,8 |] %8

